X:12581
T:Booil Backel [Baccagh] 
C:Traditional
O:Isle of Man
N:See also KV 20,372.
Z:Clague collection
B:Kiaull Vannin #258
M:2/4
L:1/8 
K:G 
d2| (dB) (dB)|d2 (dB)|(dg) dd| d3d|(dB) (cA)|(BG) (GB)|(AG) GG|G2 z4|| 
